X: 16
T: Banish Misfortune
Z: Will The Whistler
S: https://thesession.org/tunes/9#setting53205
R: jig
M: 6/8
L: 1/8
K: Dmix
|:e|fed cAG|A2d cAG|F2D {A}DED|FEF GFG|
AGA cAG|AGA cde|{a}fed cAG|Ad^c d2:|
|:e|f2d d^cd|f2g agf|e2c cBc|e2f gfe|
f2g {c'}agf|e2f {a}gfe|{a}fed cAG|Ad^c d2:|
|:e|~f3 ~e3|d2e c2d|ABA GAG|FAF GED|
c2 A {c}AGA|c2 d ede|{a}fed cAG|Ad^c d2:|

